X:1
T:Lughnasad Dance
M:12/8
L:1/8
K:F
 F2 G F2 D F2 G A3| G2 GE-D C D3- D3| F2 G F2 D F2 G A3| G2 GE-D C D3- D3|\
 A2 A AGF G2 G G3| AAA AGF G3- G3| A2 A AGF G2 G GFE| DEF E2 C D3- D3|\
